brandFactory_export/1.Light/Router_1Light.svg

<?xml version="1.0" encoding="UTF-8"?>
<svg width="24px" height="24px" viewBox="0 0 24 24" version="1.1" xmlns="http://www.w3.org/2000/svg" xmlns:xlink="http://www.w3.org/1999/xlink">
    <title>1.Light/Router_1Light</title>
    <g id="Symbols" stroke="none" stroke-width="1" fill="none" fill-rule="evenodd">
        <g id="1.Light/Router_1Light" fill="#5CB615" fill-rule="nonzero">
            <path d="M3.31092437,18.2655462 C3.79831933,18.2655462 4.11428571,18.5176471 4.11428571,19.0621849 C4.11428571,19.3243697 4.04033613,19.5159664 3.91260504,19.6504202 C3.77142857,19.7915966 3.56638655,19.8621849 3.31092437,19.8621849 C3.05882353,19.8621849 2.85042017,19.794958 2.7092437,19.6504202 C2.57815126,19.5193277 2.50756303,19.3243697 2.50756303,19.0621849 C2.50756303,18.5176471 2.82352941,18.2655462 3.31092437,18.2655462 Z M6.23529412,18.2655462 C6.72268908,18.2655462 7.03865546,18.5176471 7.03865546,19.0621849 C7.03865546,19.3243697 6.96470588,19.5159664 6.83697479,19.6504202 C6.69579832,19.7915966 6.4907563,19.8621849 6.23865546,19.8621849 C5.98319328,19.8621849 5.77815126,19.794958 5.63697479,19.6504202 C5.50588235,19.5193277 5.43529412,19.3243697 5.43529412,19.0621849 C5.43193277,18.5176471 5.74789916,18.2655462 6.23529412,18.2655462 Z M22.6386555,20.0436975 L22.6386555,18.0773109 C22.6386555,17.1966387 22.4302521,16.5378151 22.0201681,16.1109244 C21.5966387,15.6705882 20.9210084,15.4487395 20.010084,15.4487395 L3.61680672,15.4487395 C2.70588235,15.4487395 2.02689076,15.6705882 1.60672269,16.1109244 C1.19663866,16.5378151 0.988235294,17.1966387 0.988235294,18.0773109 L0.988235294,20.0436975 C0.988235294,20.9243697 1.19663866,21.5831933 1.60672269,22.010084 C2.0302521,22.4504202 2.70588235,22.6722689 3.61680672,22.6722689 L20.010084,22.6722689 C20.9210084,22.6722689 21.5966387,22.4504202 22.0201681,22.010084 C22.4302521,21.5831933 22.6386555,20.9243697 22.6386555,20.0436975 L22.6386555,20.0436975 Z M22.7294118,15.4285714 C23.3210084,16.0436975 23.6235294,16.9344538 23.6235294,18.0773109 L23.6235294,20.0436975 C23.6235294,21.1865546 23.3210084,22.0773109 22.7294118,22.692437 C22.1109244,23.3344538 21.1966387,23.6571429 20.0067227,23.6571429 L3.61680672,23.6571429 C2.42689076,23.6571429 1.51260504,23.3344538 0.894117647,22.692437 C0.299159664,22.0773109 0,21.1865546 0,20.0436975 L0,18.0773109 C0,16.9344538 0.299159664,16.0436975 0.894117647,15.4285714 C1.51260504,14.789916 2.42689076,14.4638655 3.61680672,14.4638655 L5.88235294,14.4638655 L5.88235294,5.57647059 C5.88235294,5.30420168 6.10420168,5.08571429 6.37310924,5.08571429 C6.64201681,5.08571429 6.86386555,5.30756303 6.86386555,5.57647059 L6.86386555,14.4672269 L20.0033613,14.4672269 C21.1966387,14.4672269 22.1109244,14.789916 22.7294118,15.4285714 Z M13.5697479,5.54285714 C13.5394958,2.63865546 11.6672269,0.904201681 11.6504202,0.887394958 C11.4487395,0.702521008 11.4352941,0.393277311 11.6168067,0.191596639 C11.7983193,-0.00672268908 12.107563,-0.0235294118 12.3092437,0.154621849 C12.4,0.235294118 14.5176471,2.18151261 14.5546218,5.51260504 C14.5613445,5.63697479 14.6756303,8.90756303 12.3428571,10.9915966 C12.1411765,11.1731092 11.8285714,11.1563025 11.6470588,10.9512605 C11.4655462,10.7495798 11.4823529,10.4369748 11.687395,10.2554622 C13.6739496,8.48739496 13.5731092,5.57310924 13.5697479,5.54285714 Z M10.4638655,5.57647059 C10.4436975,3.79831933 9.3210084,2.7697479 9.31092437,2.75966387 C9.12268908,2.56470588 9.12605042,2.25210084 9.3210084,2.06386555 C9.49915966,1.89243697 9.77478992,1.8789916 9.9697479,2.0302521 C10.0302521,2.08403361 11.4252101,3.36470588 11.4487395,5.54957983 C11.4521008,5.62352941 11.5260504,7.77478992 9.98991597,9.15294118 C9.78823529,9.33445378 9.4789916,9.31764706 9.29747899,9.11596639 L9.29411765,9.11260504 C9.11260504,8.91092437 9.12941176,8.59831933 9.33445378,8.41680672 C10.5277311,7.3512605 10.4638655,5.59327731 10.4638655,5.57647059 Z" id="Router_1Light"></path>
        </g>
    </g>
</svg>

<svg width="24" height="24" viewBox="0 0 24 24" xmlns="http://www.w3.org/2000/svg"><path d="M3.31 18.266c.488 0 .804.252.804.796 0 .262-.074.454-.201.588-.142.142-.347.212-.602.212-.252 0-.46-.067-.602-.212-.13-.13-.201-.326-.201-.588 0-.544.316-.796.803-.796zm2.925 0c.488 0 .804.252.804.796 0 .262-.074.454-.202.588-.141.142-.346.212-.598.212-.256 0-.46-.067-.602-.212-.131-.13-.202-.326-.202-.588-.003-.544.313-.796.8-.796zm16.404 1.778v-1.967c0-.88-.209-1.54-.619-1.966-.423-.44-1.099-.662-2.01-.662H3.617c-.911 0-1.59.222-2.01.662-.41.427-.619 1.086-.619 1.966v1.967c0 .88.209 1.54.619 1.966.423.44 1.099.662 2.01.662H20.01c.911 0 1.587-.222 2.01-.662.41-.427.619-1.086.619-1.966zm.09-4.615c.592.615.895 1.505.895 2.648v1.967c0 1.143-.303 2.033-.895 2.648-.618.642-1.532.965-2.722.965H3.617c-1.19 0-2.104-.323-2.723-.965C.3 22.077 0 21.187 0 20.044v-1.967c0-1.143.3-2.033.894-2.648.619-.64 1.533-.965 2.723-.965h2.265V5.576a.491.491 0 01.982 0v8.891h13.14c1.193 0 2.107.323 2.725.962zm-9.16-9.886C13.54 2.639 11.668.904 11.65.887a.494.494 0 01.66-.732c.09.08 2.208 2.027 2.245 5.358.006.124.12 3.395-2.212 5.479a.49.49 0 01-.696-.04.49.49 0 01.04-.697c1.987-1.768 1.886-4.682 1.883-4.712zm-3.105.033C10.444 3.798 9.32 2.77 9.31 2.76a.493.493 0 01.659-.73c.06.054 1.455 1.335 1.479 3.52.003.074.077 2.225-1.46 3.603a.49.49 0 01-.692-.037l-.003-.003a.49.49 0 01.04-.696c1.194-1.066 1.13-2.824 1.13-2.84z" fill="#5CB615" fill-rule="nonzero"/></svg>
